X: 41
P: Longways for as many as will
M: C|
L: 1/8
K: G
|:\
c2cd B2Bc | A2AG F2ef | g2d2 edcB | ABcd B2AG :|
|:\
g2G2 g2G2 | gfef g2G2 | G2GA F3G | E2E2 c4 |\
c2cd B2Bc | A2AG F2ef | g2d2 edcB | ABcd B2G2 :|

